X:63
T:Kitt Green's Hornpipe. ThoH.063
Q:1/2=90
M:C
L:1/8
B:Thompson's Compleat Collection of 120 Favourite Hornpipes.
Z:Village Music Project, Simon Wilson 2016
O:England.
K:C
c4cdef|e2e2e2d2|c4cdef|g2G2G2G2|A4G2F2|E2c4G2|A4G2F2|E2C6:|
|:g4gfed|c2c2c2d2|c2G2A2_B2|A2F2F4|a4ag^fe|d2d2d2e2|d2A2B2c2|B4A2G2|
c4cde^f|e2e2e2d2|c4cdef|g2g2g2g2|a4g2f2|e2g4g2|a4g2f2|e2c6:|

